public/cloud-icons/azure/management/azure-load-testing.svg

<?xml version="1.0" encoding="UTF-8" standalone="no"?>
<!-- Generated by Microsoft Visio, SVG Export Azure Load Testing.svg Page-1 -->

<svg
   xmlns:dc="http://purl.org/dc/elements/1.1/"
   xmlns:cc="http://creativecommons.org/ns#"
   xmlns:rdf="http://www.w3.org/1999/02/22-rdf-syntax-ns#"
   xmlns:svg="http://www.w3.org/2000/svg"
   xmlns="http://www.w3.org/2000/svg"
   xmlns:sodipodi="http://sodipodi.sourceforge.net/DTD/sodipodi-0.dtd"
   xmlns:inkscape="http://www.inkscape.org/namespaces/inkscape"
   width="0.78103924in"
   height="0.74802268in"
   viewBox="0 0 56.235026 53.857774"
   xml:space="preserve"
   class="st8"
   version="1.1"
   id="svg67"
   sodipodi:docname="Azure Load Testing.svg"
   style="font-size:12px;overflow:visible;color-interpolation-filters:sRGB;fill:none;fill-rule:evenodd;stroke-linecap:square;stroke-miterlimit:3"
   inkscape:version="0.92.5 (2060ec1f9f, 2020-04-08)"><metadata
   id="metadata71"><rdf:RDF><cc:Work
       rdf:about=""><dc:format>image/svg+xml</dc:format><dc:type
         rdf:resource="http://purl.org/dc/dcmitype/StillImage" /></cc:Work></rdf:RDF></metadata><sodipodi:namedview
   pagecolor="#ffffff"
   bordercolor="#666666"
   borderopacity="1"
   objecttolerance="10"
   gridtolerance="10"
   guidetolerance="10"
   inkscape:pageopacity="0"
   inkscape:pageshadow="2"
   inkscape:window-width="640"
   inkscape:window-height="480"
   id="namedview69"
   showgrid="false"
   inkscape:zoom="1.4523234"
   inkscape:cx="37.490111"
   inkscape:cy="35.895586"
   inkscape:window-x="0"
   inkscape:window-y="0"
   inkscape:window-maximized="0"
   inkscape:current-layer="svg67" />
	<style
   type="text/css"
   id="style2">
	<![CDATA[
		.st1 {fill:url(#grad0-6);stroke:none;stroke-linecap:butt;stroke-width:34}
		.st2 {fill:url(#grad0-10);stroke:none;stroke-linecap:butt;stroke-width:34}
		.st3 {fill:#ffffff;stroke:none;stroke-linecap:butt;stroke-width:34}
		.st4 {fill:#f78d1e;stroke:none;stroke-linecap:butt;stroke-width:34}
		.st5 {fill:#005ba1;stroke:none;stroke-linecap:butt;stroke-width:34}
		.st6 {fill:#5ea0ef;stroke:none;stroke-linecap:butt;stroke-width:34}
		.st7 {fill:#b4ec36;stroke:none;stroke-linecap:butt;stroke-width:34}
		.st8 {fill:none;fill-rule:evenodd;font-size:12px;overflow:visible;stroke-linecap:square;stroke-miterlimit:3}
	]]>
	</style>

	<defs
   id="Patterns_And_Gradients">
		<linearGradient
   id="grad0-6"
   x1="0.52325855"
   y1="68.429832"
   x2="38.764488"
   y2="68.429832"
   gradientTransform="scale(0.87528564,1.1424842)"
   gradientUnits="userSpaceOnUse">
			<stop
   offset="0"
   stop-color="#005ba1"
   stop-opacity="1"
   id="stop4" />
			<stop
   offset="0.915"
   stop-color="#0078d4"
   stop-opacity="1"
   id="stop6" />
		</linearGradient>
		<linearGradient
   id="grad0-10"
   x1="0"
   y1="91.761928"
   x2="30.262077"
   y2="91.761928"
   gradientTransform="scale(1.0012267,0.9987748)"
   gradientUnits="userSpaceOnUse">
			<stop
   offset="0.345"
   stop-color="#0078d4"
   stop-opacity="1"
   id="stop9" />
			<stop
   offset="0.605"
   stop-color="#006ec3"
   stop-opacity="1"
   id="stop11" />
			<stop
   offset="1"
   stop-color="#005ba1"
   stop-opacity="1"
   id="stop13" />
		</linearGradient>
	</defs>
	<g
   id="g65"
   transform="translate(-33.999801,-34.001)">
		<title
   id="title17">Page-1</title>
		<g
   id="group13734-1"
   transform="translate(33.5418,-34.0157)">
			<title
   id="title19">Azure Load Testing.13734</title>
			<g
   id="group13735-2">
				<title
   id="title21">Sheet.13735</title>
				<g
   id="shape13736-3"
   transform="translate(0,-10.1633)">
					<title
   id="title23">Sheet.13736</title>
					<path
   d="m 33.93,102.36 a 16.2743,16.2345 -180 0 0 -3.69,2.65 l -2.68,-3.92 A 2.49941,2.49329 0 0 1 27.09,99.62 V 93.14 A 1.18722,1.18431 -180 0 0 25.9,91.95 H 20 a 1.18722,1.18431 -180 0 0 -1.19,1.19 v 6.08 a 3.74912,3.73994 0 0 1 -0.69,2.15 L 7.75,116.45 a 1.03726,1.03472 -180 0 0 -0.16,0.5 0.906037,0.903819 -180 0 0 0.906037,0.90382 L 25.12,117.85 a 15.5713,15.5332 -180 0 0 0.72,4.02 H 2.12 c -1.34,0 -2.12,-2.12 -1.37,-3.21 L 15.09,97.78 a 1.65274,1.64869 -180 0 0 0.28,-0.93 V 83.01 A 0.80606,0.804087 -180 0 0 14.557691,82.199679 L 13.81,82.2 a 1.65898,1.65492 0 0 1 -1.66,-1.62 v -0.75 a 1.66836,1.66427 0 0 1 1.66,-1.65 h 18.28 a 1.66836,1.66427 0 0 1 1.65,1.65 v 0.75 a 1.64024,1.63622 0 0 1 -1.62,1.65 h -0.78 a 0.834179,0.832137 -180 0 0 -0.843552,0.810321 L 30.49,96.88 a 1.65274,1.64869 -180 0 0 0.28,0.93 z"
   class="st1"
   id="path25"
   inkscape:connector-curvature="0"
   style="fill:url(#grad0-6);stroke:none;stroke-width:34;stroke-linecap:butt" />
				</g>
				<g
   id="shape13737-7"
   transform="translate(26.3938)">
					<title
   id="title28">Sheet.13737</title>
					<ellipse
   cx="15.1496"
   cy="106.762"
   rx="15.1496"
   ry="15.1125"
   class="st2"
   id="ellipse30"
   style="fill:url(#grad0-10);stroke:none;stroke-width:34;stroke-linecap:butt" />
				</g>
				<g
   id="shape13738-11"
   transform="translate(29.1619,-2.81119)">
					<title
   id="title33">Sheet.13738</title>
					<ellipse
   cx="12.3815"
   cy="109.573"
   rx="12.3815"
   ry="12.3013"
   class="st3"
   id="ellipse35"
   style="fill:#ffffff;stroke:none;stroke-width:34;stroke-linecap:butt" />
				</g>
				<g
   id="shape13739-13"
   transform="translate(42.2651,-15.848)">
					<title
   id="title38">Sheet.13739</title>
					<path
   d="m 7.28,115.68 a 11.6473,11.6188 0 0 1 2.5,5.9 0.274935,0.274262 0 0 1 -0.274935,0.29296 L 5.37,121.87 A 0.271811,0.271146 0 0 1 5.104437,121.63937 6.02358,6.00884 -180 0 0 3.95,119.02 4.3521,4.34145 -180 0 0 2.86,118.05 5.68929,5.67536 -180 0 0 0.23,116.92 0.274935,0.274262 0 0 1 -0.00432,116.65197 L 0,112.45 A 0.274935,0.274262 0 0 1 0.293681,112.17885 10.2913,10.2661 0 0 1 7.28,115.68 Z"
   class="st4"
   id="path40"
   inkscape:connector-curvature="0"
   style="fill:#f78d1e;stroke:none;stroke-width:34;stroke-linecap:butt" />
				</g>
				<g
   id="shape13740-15"
   transform="translate(42.1745,-14.6886)">
					<title
   id="title43">Sheet.13740</title>
					<path
   d="M 8.21,118 A 0.784191,0.782271 -180 0 0 7.213359,117.56367 L 0,120.46 l 0.56,1.41 7.22,-2.84 a 0.771693,0.769805 -180 0 0 0.456143,-0.98797 z"
   class="st5"
   id="path45"
   inkscape:connector-curvature="0"
   style="fill:#005ba1;stroke:none;stroke-width:34;stroke-linecap:butt" />
				</g>
				<g
   id="shape13741-17"
   transform="translate(39.2845,-12.9745)">
					<title
   id="title48">Sheet.13741</title>
					<ellipse
   cx="2.1026299"
   cy="119.777"
   rx="2.1026299"
   ry="2.0974801"
   class="st6"
   id="ellipse50"
   style="fill:#5ea0ef;stroke:none;stroke-width:34;stroke-linecap:butt" />
				</g>
				<g
   id="shape13742-19"
   transform="translate(31.0333,-5.99503)">
					<title
   id="title53">Sheet.13742</title>
					<path
   d="m 0.98,116.39 4.01,-1.21 A 0.271811,0.271146 0 0 1 5.302427,115.32025 5.95485,5.94027 -180 0 0 7.54,117.69 0.268687,0.268029 0 0 1 7.646225,118.05153 L 5.66,121.74 A 0.271811,0.271146 0 0 1 5.288212,121.84908 10.4257,10.4002 0 0 1 0.79,116.76 0.268687,0.268029 0 0 1 0.98058,116.39847 Z m 0.56,-9.24 A 11.6066,11.5782 -180 0 0 0,113.36 0.268687,0.268029 -180 0 0 0.312427,113.60621 L 4.41,112.97 A 0.274935,0.274262 -180 0 0 4.638071,112.70197 6.00796,5.99326 0 0 1 5.36,109.93 4.40834,4.39755 0 0 1 6.29,108.8 5.70178,5.68783 0 0 1 8.7,107.27 0.281184,0.280496 -180 0 0 8.89058,106.95834 L 8.24,102.82 A 0.265563,0.264912 -180 0 0 7.908828,102.59872 10.2663,10.2412 -180 0 0 1.53,107.15 Z"
   class="st7"
   id="path55"
   inkscape:connector-curvature="0"
   style="fill:#b4ec36;stroke:none;stroke-width:34;stroke-linecap:butt" />
				</g>
				<g
   id="shape13743-21"
   transform="translate(7.59196,-14.1837)">
					<title
   id="title58">Sheet.13743</title>
					<path
   d="m 17.5,120.94 c 0,0.31 0,0.62 0.03,0.93 H 0.91 A 0.906037,0.903819 0 0 1 0.003963,120.96618 1.03726,1.03472 0 0 1 0.16,120.47 l 10.37,-15.08 a 3.74912,3.73994 -180 0 0 0.69,-2.15 v -6.08 a 1.18722,1.18431 0 0 1 1.18,-1.19 h 5.91 a 1.18722,1.18431 0 0 1 1.19,1.19 v 6.48 a 2.49941,2.49329 -180 0 0 0.46,1.47 l 2.69,3.92 a 16.343,16.303 -180 0 0 -5.15,11.91 z"
   class="st3"
   id="path60"
   inkscape:connector-curvature="0"
   style="fill:#ffffff;stroke:none;stroke-width:34;stroke-linecap:butt" />
				</g>
			</g>
		</g>
	</g>
</svg>

<svg xmlns="http://www.w3.org/2000/svg" xml:space="preserve" width="74.98" height="71.81" style="font-size:12px;overflow:visible;color-interpolation-filters:sRGB;fill-rule:evenodd;stroke-linecap:square;stroke-miterlimit:3" viewBox="0 0 56.235 53.858"><defs><linearGradient id="a" x1=".523" x2="38.764" y1="68.43" y2="68.43" gradientTransform="scale(.87529 1.14248)" gradientUnits="userSpaceOnUse"><stop offset="0" stop-color="#005ba1"/><stop offset=".915" stop-color="#0078d4"/></linearGradient><linearGradient id="b" x1="0" x2="30.262" y1="91.762" y2="91.762" gradientTransform="scale(1.00123 .99877)" gradientUnits="userSpaceOnUse"><stop offset=".345" stop-color="#0078d4"/><stop offset=".605" stop-color="#006ec3"/><stop offset="1" stop-color="#005ba1"/></linearGradient></defs><g transform="translate(-34 -34.001)"><title>Page-1</title><g transform="translate(33.542 -34.016)"><title>Azure Load Testing.13734</title><title>Sheet.13735</title><g transform="translate(0 -10.163)"><title>Sheet.13736</title><path d="M33.93 102.36a16.274 16.235-180 0 0-3.69 2.65l-2.68-3.92a2.5 2.493 0 0 1-.47-1.47v-6.48a1.187 1.184-180 0 0-1.19-1.19H20a1.187 1.184-180 0 0-1.19 1.19v6.08a3.75 3.74 0 0 1-.69 2.15L7.75 116.45a1.037 1.035-180 0 0-.16.5.906.904-180 0 0 .906.904l16.624-.004a15.571 15.533-180 0 0 .72 4.02H2.12c-1.34 0-2.12-2.12-1.37-3.21l14.34-20.88a1.653 1.649-180 0 0 .28-.93V83.01a.806.804-180 0 0-.812-.81h-.748a1.659 1.655 0 0 1-1.66-1.62v-.75a1.668 1.664 0 0 1 1.66-1.65h18.28a1.668 1.664 0 0 1 1.65 1.65v.75a1.64 1.636 0 0 1-1.62 1.65h-.78a.834.832-180 0 0-.844.81l-.006 13.84a1.653 1.649-180 0 0 .28.93z" style="fill:url(#a);stroke:none;stroke-width:34;stroke-linecap:butt"/></g><g transform="translate(26.394)"><title>Sheet.13737</title><ellipse cx="15.15" cy="106.762" rx="15.15" ry="15.113" style="fill:url(#b);stroke:none;stroke-width:34;stroke-linecap:butt"/></g><g transform="translate(29.162 -2.811)"><title>Sheet.13738</title><ellipse cx="12.382" cy="109.573" rx="12.382" ry="12.301" style="fill:#fff;stroke:none;stroke-width:34;stroke-linecap:butt"/></g><g transform="translate(42.265 -15.848)"><title>Sheet.13739</title><path d="M7.28 115.68a11.647 11.619 0 0 1 2.5 5.9.275.274 0 0 1-.275.293l-4.135-.003a.272.271 0 0 1-.266-.23 6.024 6.009-180 0 0-1.154-2.62 4.352 4.341-180 0 0-1.09-.97 5.69 5.675-180 0 0-2.63-1.13.275.274 0 0 1-.234-.268L0 112.45a.275.274 0 0 1 .294-.271 10.291 10.266 0 0 1 6.986 3.501" style="fill:#f78d1e;stroke:none;stroke-width:34;stroke-linecap:butt"/></g><g transform="translate(42.175 -14.689)"><title>Sheet.13740</title><path d="M8.21 118a.784.782-180 0 0-.997-.436L0 120.46l.56 1.41 7.22-2.84a.772.77-180 0 0 .456-.988z" style="fill:#005ba1;stroke:none;stroke-width:34;stroke-linecap:butt"/></g><g transform="translate(39.285 -12.975)"><title>Sheet.13741</title><ellipse cx="2.103" cy="119.777" rx="2.103" ry="2.097" style="fill:#5ea0ef;stroke:none;stroke-width:34;stroke-linecap:butt"/></g><g transform="translate(31.033 -5.995)"><title>Sheet.13742</title><path d="m.98 116.39 4.01-1.21a.272.271 0 0 1 .312.14 5.955 5.94-180 0 0 2.238 2.37.269.268 0 0 1 .106.362L5.66 121.74a.272.271 0 0 1-.372.11 10.426 10.4 0 0 1-4.498-5.09.269.268 0 0 1 .19-.362Zm.56-9.24A11.607 11.578-180 0 0 0 113.36a.269.268-180 0 0 .312.246l4.098-.636a.275.274-180 0 0 .228-.268 6.008 5.993 0 0 1 .722-2.772 4.408 4.398 0 0 1 .93-1.13 5.702 5.688 0 0 1 2.41-1.53.281.28-180 0 0 .19-.312l-.65-4.138a.266.265-180 0 0-.331-.221 10.266 10.241-180 0 0-6.379 4.551Z" style="fill:#b4ec36;stroke:none;stroke-width:34;stroke-linecap:butt"/></g><g transform="translate(7.592 -14.184)"><title>Sheet.13743</title><path d="M17.5 120.94c0 .31 0 .62.03.93H.91a.906.904 0 0 1-.906-.904 1.037 1.035 0 0 1 .156-.496l10.37-15.08a3.75 3.74-180 0 0 .69-2.15v-6.08a1.187 1.184 0 0 1 1.18-1.19h5.91a1.187 1.184 0 0 1 1.19 1.19v6.48a2.5 2.493-180 0 0 .46 1.47l2.69 3.92a16.343 16.303-180 0 0-5.15 11.91" style="fill:#fff;stroke:none;stroke-width:34;stroke-linecap:butt"/></g></g></g></svg>
